spyder/images/code-profiler.svg

<svg width="300" height="200" viewBox="0 0 300 200" fill="none" xmlns="http://www.w3.org/2000/svg">
<path d="M132 39.5C132 40.8807 133.119 42 134.5 42C135.881 42 137 40.8807 137 39.5C137 38.1193 135.881 37 134.5 37C133.119 37 132 38.1193 132 39.5Z" fill="#336E9E"/>
<path d="M95 39H116V46.9099C113.079 45.6799 109.869 45 106.5 45C102.344 45 98.4292 46.035 95 47.8612V39Z" fill="#336E9E"/>
<path d="M182 58H131.487C130.842 56.5991 130.081 55.2618 129.219 54H182C187.523 54 192 58.4771 192 64V144C192 149.523 187.523 154 182 154H113C107.477 154 103 149.523 103 144V96.7794C104.146 96.925 105.314 97 106.5 97C106.604 97 106.708 96.9994 106.812 96.9983C106.875 96.9976 106.937 96.9967 107 96.9955V144C107 147.314 109.686 150 113 150H182C185.314 150 188 147.314 188 144V64C188 60.6863 185.314 58 182 58Z" fill="#336E9E"/>
<path d="M160 74H133.634C133.848 72.6953 133.971 71.3597 133.996 70H160C161.105 70 162 70.8954 162 72C162 73.1046 161.105 74 160 74Z" fill="#336E9E"/>
<path d="M154 114C154 112.895 153.105 112 152 112H121C119.895 112 119 112.895 119 114C119 115.105 119.895 116 121 116H152C153.105 116 154 115.105 154 114Z" fill="#336E9E"/>
<path d="M169 133C170.105 133 171 133.895 171 135C171 136.105 170.105 137 169 137H121C119.895 137 119 136.105 119 135C119 133.895 119.895 133 121 133H169Z" fill="#336E9E"/>
<path d="M120.418 93.2233C120.783 93.6958 121.356 94 122 94H180C181.105 94 182 93.1046 182 92C182 90.8954 181.105 90 180 90H124.831C123.474 91.2139 121.996 92.2951 120.418 93.2233Z" fill="#336E9E"/>
<path fill-rule="evenodd" clip-rule="evenodd" d="M106.5 83C113.956 83 120 76.9558 120 69.5C120 62.0442 113.956 56 106.5 56C99.0442 56 93 62.0442 93 69.5C93 76.9558 99.0442 83 106.5 83ZM107.5 64H104.5V73.5H114V70.5H107.5V64Z" fill="#336E9E"/>
<path fill-rule="evenodd" clip-rule="evenodd" d="M106.5 91C118.374 91 128 81.3741 128 69.5C128 57.6259 118.374 48 106.5 48C94.6259 48 85 57.6259 85 69.5C85 81.3741 94.6259 91 106.5 91ZM106.5 86C115.613 86 123 78.6127 123 69.5C123 60.3873 115.613 53 106.5 53C97.3873 53 90 60.3873 90 69.5C90 78.6127 97.3873 86 106.5 86Z" fill="#336E9E"/>
<path d="M225.5 109.5C225.5 110.605 224.605 111.5 223.5 111.5H216.5V118.5C216.5 119.605 215.605 120.5 214.5 120.5C213.395 120.5 212.5 119.605 212.5 118.5V111.5H205.5C204.395 111.5 203.5 110.605 203.5 109.5C203.5 108.395 204.395 107.5 205.5 107.5H212.5V100.5C212.5 99.3954 213.395 98.5 214.5 98.5C215.605 98.5 216.5 99.3954 216.5 100.5V107.5H223.5C224.605 107.5 225.5 108.395 225.5 109.5Z" fill="#336E9E"/>
<path d="M90 151C91.1046 151 92 150.105 92 149C92 147.895 91.1046 147 90 147H83V140C83 138.895 82.1046 138 81 138C79.8954 138 79 138.895 79 140V147H72C70.8954 147 70 147.895 70 149C70 150.105 70.8954 151 72 151H79V158C79 159.105 79.8954 160 81 160C82.1046 160 83 159.105 83 158V151H90Z" fill="#336E9E"/>
<path d="M228 96.5C226.619 96.5 225.5 95.3807 225.5 94C225.5 92.6193 226.619 91.5 228 91.5C229.381 91.5 230.5 92.6193 230.5 94C230.5 95.3807 229.381 96.5 228 96.5Z" fill="#336E9E"/>
<path d="M94.5 163C93.1193 163 92 161.881 92 160.5C92 159.119 93.1193 158 94.5 158C95.8807 158 97 159.119 97 160.5C97 161.881 95.8807 163 94.5 163Z" fill="#336E9E"/>
<path d="M216.5 83C216.5 84.3807 217.619 85.5 219 85.5C220.381 85.5 221.5 84.3807 221.5 83C221.5 81.6193 220.381 80.5 219 80.5C217.619 80.5 216.5 81.6193 216.5 83Z" fill="#336E9E"/>
<path d="M80.5 79C79.1193 79 78 77.8807 78 76.5C78 75.1193 79.1193 74 80.5 74C81.8807 74 83 75.1193 83 76.5C83 77.8807 81.8807 79 80.5 79Z" fill="#336E9E"/>
<path d="M72 66.5C72 67.8807 73.1193 69 74.5 69C75.8807 69 77 67.8807 77 66.5C77 65.1193 75.8807 64 74.5 64C73.1193 64 72 65.1193 72 66.5Z" fill="#336E9E"/>
</svg>

<svg xmlns="http://www.w3.org/2000/svg" width="300" height="200" fill="none"><path fill="#336E9E" d="M132 39.5a2.5 2.5 0 1 0 5 0 2.5 2.5 0 0 0-5 0ZM95 39h21v7.91a24.422 24.422 0 0 0-9.5-1.91c-4.156 0-8.07 1.035-11.5 2.861V39ZM182 58h-50.513a27.432 27.432 0 0 0-2.268-4H182c5.523 0 10 4.477 10 10v80c0 5.523-4.477 10-10 10h-69c-5.523 0-10-4.477-10-10V96.78a27.758 27.758 0 0 0 4 .216V144a6 6 0 0 0 6 6h69a6 6 0 0 0 6-6V64a6 6 0 0 0-6-6Z"/><path fill="#336E9E" d="M160 74h-26.366c.214-1.305.337-2.64.362-4H160a2 2 0 1 1 0 4ZM154 114a2 2 0 0 0-2-2h-31a2 2 0 1 0 0 4h31a2 2 0 0 0 2-2ZM169 133a2 2 0 1 1 0 4h-48a2 2 0 1 1 0-4h48ZM120.418 93.223c.365.473.938.777 1.582.777h58a2 2 0 1 0 0-4h-55.169a27.638 27.638 0 0 1-4.413 3.223Z"/><path fill="#336E9E" fill-rule="evenodd" d="M106.5 83c7.456 0 13.5-6.044 13.5-13.5S113.956 56 106.5 56 93 62.044 93 69.5 99.044 83 106.5 83Zm1-19h-3v9.5h9.5v-3h-6.5V64Z" clip-rule="evenodd"/><path fill="#336E9E" fill-rule="evenodd" d="M106.5 91c11.874 0 21.5-9.626 21.5-21.5S118.374 48 106.5 48 85 57.626 85 69.5 94.626 91 106.5 91Zm0-5c9.113 0 16.5-7.387 16.5-16.5S115.613 53 106.5 53 90 60.387 90 69.5 97.387 86 106.5 86Z" clip-rule="evenodd"/><path fill="#336E9E" d="M225.5 109.5a2 2 0 0 1-2 2h-7v7a2 2 0 1 1-4 0v-7h-7a2 2 0 1 1 0-4h7v-7a2 2 0 1 1 4 0v7h7a2 2 0 0 1 2 2ZM90 151a2 2 0 1 0 0-4h-7v-7a2 2 0 1 0-4 0v7h-7a2 2 0 1 0 0 4h7v7a2 2 0 1 0 4 0v-7h7ZM228 96.5a2.5 2.5 0 1 1 0-5 2.5 2.5 0 0 1 0 5ZM94.5 163a2.5 2.5 0 1 1 0-5 2.5 2.5 0 0 1 0 5ZM216.5 83a2.5 2.5 0 1 0 5 0 2.5 2.5 0 0 0-5 0ZM80.5 79a2.5 2.5 0 1 1 0-5 2.5 2.5 0 0 1 0 5ZM72 66.5a2.5 2.5 0 1 0 5 0 2.5 2.5 0 0 0-5 0Z"/></svg>
